icons/1_Primary/FACEIT.svg

<svg width="1024" height="1024" fill="none" xmlns="http://www.w3.org/2000/svg"><g clip-path="url(#a)"><path d="M512 1024c282.77 0 512-229.23 512-512S794.77 0 512 0 0 229.23 0 512s229.23 512 512 512Z" fill="#F8C18C"/><path d="M184.77 479.77a38.273 38.273 0 0 1 12.6-2H256v12.17h-40.39c-3.473 0-5.21.87-5.21 2.61v13.9H256v12.17h-45.6v28.68h-32.58v-60.83c0-2.78 2.334-5.013 7-6.7h-.05Zm128.63 46.68h28.87l-14.43-27.55-14.44 27.55Zm35.3-46.06c4 1.733 6.724 3.963 8.17 6.69l31.55 60.23h-35.19l-4.51-8.69h-41.79l-4.55 8.69h-18.25l31.37-59.88c1.5-2.84 4.167-5.157 8-6.95a28.896 28.896 0 0 1 12.56-2.7 31.525 31.525 0 0 1 12.69 2.61h-.05ZM429 488c-10.193 6.807-15.29 14.99-15.29 24.55s5.097 17.74 15.29 24.54c10.2 6.813 22.457 10.22 36.77 10.22h39.1v-12.17h-39.1c-6.786 0-11.363-2.867-13.73-8.6-1.28-3.127-1.916-7.794-1.91-14 .007-6.207.644-10.873 1.91-14 2.374-5.733 6.95-8.603 13.73-8.61h39.1v-12.15h-39.1c-14.313 0-26.57 3.407-36.77 10.22Zm124.23-8.22c-4.666 1.687-7 3.92-7 6.7v52.15c0 2.787 2.334 5.017 7 6.69a37.998 37.998 0 0 0 12.59 2h58.67v-12.18h-40.4c-3.486 0-5.226-.873-5.22-2.62v-13.9h45.64v-12.16h-45.64v-13.9c0-1.74 1.74-2.61 5.22-2.61h40.42v-12.17h-58.67a38.266 38.266 0 0 0-12.59 2h-.02Zm192.07-1.93h100.77V490h-28.81c-3.41 0-5.12.86-5.12 2.61v54.75h-32.89v-54.74c0-1.74-1.71-2.61-5.12-2.61h-28.81v-12.17l-.02.01ZM680 546.9v-38.07L715.12 523v23.75h-35.06v.14l-.06.01Zm35.7-97a.498.498 0 0 0-.685-.549.5.5 0 0 0-.255.239c-8.93 13.71-14 21.55-18.49 28.65h-53.26c-.66 0-.93.86-.35 1.08 22.1 8.33 54 20.89 71.85 27.94.45.19 1.19-.25 1.19-.56v-56.8Z" fill="#fff"/></g><defs><clipPath id="a"><path fill="#fff" d="M0 0h1024v1024H0z"/></clipPath></defs></svg>

<svg width="1024" height="1024" viewBox="0 0 1024 1024" fill="none" xmlns="http://www.w3.org/2000/svg">
<g clip-path="url(#clip0_2_2145)">
<path d="M512 1024C794.77 1024 1024 794.77 1024 512C1024 229.23 794.77 0 512 0C229.23 0 0 229.23 0 512C0 794.77 229.23 1024 512 1024Z" fill="#F8C18C"/>
<path d="M184.77 479.77C188.829 478.403 193.088 477.727 197.37 477.77H256V489.94H215.61C212.137 489.94 210.4 490.81 210.4 492.55V506.45H256V518.62H210.4V547.3H177.82V486.47C177.82 483.69 180.154 481.457 184.82 479.77H184.77ZM313.4 526.45H342.27L327.84 498.9L313.4 526.45ZM348.7 480.39C352.7 482.123 355.424 484.353 356.87 487.08L388.42 547.31H353.23L348.72 538.62H306.93L302.38 547.31H284.13L315.5 487.43C317 484.59 319.667 482.273 323.5 480.48C327.431 478.649 331.724 477.726 336.06 477.78C340.425 477.762 344.747 478.651 348.75 480.39H348.7ZM429 488C418.807 494.807 413.71 502.99 413.71 512.55C413.71 522.11 418.807 530.29 429 537.09C439.2 543.903 451.457 547.31 465.77 547.31H504.87V535.14H465.77C458.984 535.14 454.407 532.273 452.04 526.54C450.76 523.413 450.124 518.746 450.13 512.54C450.137 506.333 450.774 501.667 452.04 498.54C454.414 492.807 458.99 489.937 465.77 489.93H504.87V477.78H465.77C451.457 477.78 439.2 481.187 429 488ZM553.23 479.78C548.564 481.467 546.23 483.7 546.23 486.48V538.63C546.23 541.417 548.564 543.647 553.23 545.32C557.284 546.691 561.541 547.367 565.82 547.32H624.49V535.14H584.09C580.604 535.14 578.864 534.267 578.87 532.52V518.62H624.51V506.46H578.87V492.56C578.87 490.82 580.61 489.95 584.09 489.95H624.51V477.78H565.84C561.561 477.738 557.306 478.414 553.25 479.78H553.23ZM745.3 477.85H846.07V490H817.26C813.85 490 812.14 490.86 812.14 492.61V547.36H779.25V492.62C779.25 490.88 777.54 490.01 774.13 490.01H745.32V477.84L745.3 477.85ZM680 546.9V508.83L715.12 523V546.75H680.06V546.89L680 546.9ZM715.7 449.9C715.721 449.781 715.699 449.659 715.637 449.556C715.576 449.453 715.479 449.375 715.365 449.338C715.25 449.3 715.126 449.305 715.015 449.351C714.904 449.397 714.814 449.482 714.76 449.59C705.83 463.3 700.76 471.14 696.27 478.24H643.01C642.35 478.24 642.08 479.1 642.66 479.32C664.76 487.65 696.66 500.21 714.51 507.26C714.96 507.45 715.7 507.01 715.7 506.7V449.93V449.9Z" fill="white"/>
</g>
<defs>
<clipPath id="clip0_2_2145">
<rect width="1024" height="1024" fill="white"/>
</clipPath>
</defs>
</svg>
